%
(Header)
(Generated by gcodetools from Inkscape.)
(Using default header. To add your own header create file "header" in the output dir.)
M3
(Header end.)
G21 (All units in mm)

(Start cutting path id: path8419)
(Change tool to Cylindrical cutter)

G00 Z5.000000
G00 X23.361606 Y59.310213

G01 Z-1.000000 F100.0(Penetrate)
G03 X20.764009 Y58.714280 Z-1.000000 I0.000026 J-5.959381 F400.000000
G03 X18.458680 Y56.935630 Z-1.000000 I3.100677 J-6.402130
G03 X16.970628 Y54.360606 Z-1.000000 I6.191976 J-5.295679
G03 X16.427869 Y51.202937 Z-1.000000 I8.913353 J-3.157562
G03 X18.614531 Y45.282619 Z-1.000000 I9.109027 J0.000428
G03 X23.361606 Y43.096214 Z-1.000000 I4.747102 J4.060229
G03 X28.108680 Y45.282619 Z-1.000000 I-0.000028 J6.246634
G03 X30.295342 Y51.202937 Z-1.000000 I-6.922365 J5.920746
G03 X29.752583 Y54.360606 Z-1.000000 I-9.456112 J0.000106
G03 X28.264532 Y56.935629 Z-1.000000 I-7.680028 J-2.720655
G03 X25.959203 Y58.714280 Z-1.000000 I-5.406007 J-4.623480
G03 X23.361606 Y59.310213 Z-1.000000 I-2.597624 J-5.363448
G01 X23.361606 Y59.310213 Z-1.000000
G00 Z5.000000

(End cutting path id: path8419)


(Footer)
M5
G00 X0.0000 Y0.0000
M2
(Using default footer. To add your own footer create file "footer" in the output dir.)
(end)
%