%
(Header)
(Generated by gcodetools from Inkscape.)
(Using default header. To add your own header create file "header" in the output dir.)
M3
(Header end.)
G21 (All units in mm)

(Start cutting path id: path27863)
(Change tool to Cylindrical cutter)

G00 Z5.000000
G00 X28.695165 Y54.227457

G01 Z-1.000000 F100.0(Penetrate)
G03 X23.304279 Y51.789221 Z-1.000000 I0.000000 J-7.178684 F400.000000
G03 X20.870664 Y45.336353 Z-1.000000 I7.338268 J-6.452869
G03 X23.304218 Y38.883134 Z-1.000000 I9.772989 J-0.000002
G03 X28.695165 Y36.444702 Z-1.000000 I5.390947 J4.740004
G03 X34.086112 Y38.883135 Z-1.000000 I0.000000 J7.178435
G03 X36.519666 Y45.336353 Z-1.000000 I-7.339439 J6.453218
G03 X34.086051 Y51.789221 Z-1.000000 I-9.771881 J0.000000
G03 X28.695165 Y54.227457 Z-1.000000 I-5.390886 J-4.740449
G01 X28.695165 Y54.227457 Z-1.000000
G00 Z5.000000

(End cutting path id: path27863)


(Start cutting path id: path27863)
(Change tool to Cylindrical cutter)

G00 Z5.000000
G00 X28.695165 Y54.152493

G01 Z-1.000000 F100.0(Penetrate)
G02 X34.028478 Y51.740995 Z-1.000000 I-0.000000 J-7.103376 F400.000000
G02 X36.444702 Y45.336353 Z-1.000000 I-7.280238 J-6.404647
G02 X34.028539 Y38.931360 Z-1.000000 I-9.697563 J0.000000
G02 X28.695165 Y36.519666 Z-1.000000 I-5.333375 J4.691436
G02 X23.361791 Y38.931360 Z-1.000000 I-0.000000 J7.103129
G02 X20.945629 Y45.336353 Z-1.000000 I7.281400 J6.404991
G02 X23.361852 Y51.740995 Z-1.000000 I9.696454 J-0.000001
G02 X28.695165 Y54.152493 Z-1.000000 I5.333313 J-4.691879
G01 X28.695165 Y54.152493 Z-1.000000
G00 Z5.000000

(End cutting path id: path27863)


(Footer)
M5
G00 X0.0000 Y0.0000
M2
(Using default footer. To add your own footer create file "footer" in the output dir.)
(end)
%