%
(Encabezamiento)
(Generado por gcodetools desde Inkscape.)
(Usando encabezamiento por defecto. Para generar tu propio encabezamiento crea un archivo "header" en el directorio de salida.)
M3
(Fin Encabezamiento.)
G21 (Todas las unidades en mm)
 
G00 Z5.000000
G00 X32.887709 Y217.880765

G01 Z-1.000000 F1.0
G01 X32.887709 Y217.713196 Z-1.000000 F400.000000
G01 X32.887709 Y108.854792 Z-1.000000
G01 X32.887709 Y108.687223 Z-1.000000
G01 X33.064097 Y108.687223 Z-1.000000
G01 X172.561251 Y108.687223 Z-1.000000
G01 X172.728820 Y108.687223 Z-1.000000
G01 X172.728820 Y108.854792 Z-1.000000
G01 X172.728820 Y217.713196 Z-1.000000
G01 X172.728820 Y217.880765 Z-1.000000
G01 X172.561251 Y217.880765 Z-1.000000
G01 X33.064097 Y217.880765 Z-1.000000
G01 X32.887709 Y217.880765 Z-1.000000
G01 X32.887709 Y217.880765 Z-1.000000
G00 Z5.000000

G00 Z5.000000
G00 X33.231667 Y217.545626

G01 Z-1.000000 F1.0
G01 X172.393682 Y217.545626 Z-1.000000 F400.000000
G01 X172.393682 Y109.022362 Z-1.000000
G01 X33.231667 Y109.022362 Z-1.000000
G01 X33.231667 Y217.545626 Z-1.000000
G01 X33.231667 Y217.545626 Z-1.000000
G00 Z5.000000


(Pie de pagina)
M5
G00 X0.0000 Y0.0000
M2
(Usando pie por defecto. Para añadir tu propio pie crea un archivo "footer" en el directorio de salida.)
(end)
%