%
(Header)
(Generated by gcodetools from Inkscape.)
(Using default header. To add your own header create file "header" in the output dir.)
M3
(Header end.)
G21 (All units in mm)

(Start cutting path id: path13287)
(Change tool to Cylindrical cutter)

G00 Z5.000000
G00 X19.054961 Y34.820821

G01 Z-1.000000 F100.0(Penetrate)
G01 X9.982509 Y28.016068 Z-1.000000 F400.000000
G01 X13.650295 Y17.285008 Z-1.000000
G01 X24.989345 Y17.457539 Z-1.000000
G01 X24.997061 Y17.483447 Z-1.000000
G01 X28.329708 Y28.294982 Z-1.000000
G01 X19.054961 Y34.820821 Z-1.000000
G00 Z5.000000

(End cutting path id: path13287)


(Start cutting path id: path13287)
(Change tool to Cylindrical cutter)

G00 Z5.000000
G00 X19.056062 Y34.728215

G01 Z-1.000000 F100.0(Penetrate)
G01 X28.242064 Y28.265216 Z-1.000000 F400.000000
G01 X24.934221 Y17.531402 Z-1.000000
G01 X13.703210 Y17.361075 Z-1.000000
G01 X10.070702 Y27.989059 Z-1.000000
G01 X19.056062 Y34.728215 Z-1.000000
G00 Z5.000000

(End cutting path id: path13287)


(Footer)
M5
G00 X0.0000 Y0.0000
M2
(Using default footer. To add your own footer create file "footer" in the output dir.)
(end)
%