%
(Encabezamiento)
(Generado por gcodetools desde Inkscape.)
(Usando encabezamiento por defecto. Para generar tu propio encabezamiento crea un archivo "header" en el directorio de salida.)
M3
(Fin Encabezamiento.)
G21 (Todas las unidades en mm)
 
G00 Z5.000000
G00 X67.830348 Y165.405070

G01 Z-1.000000 F1.0
G01 X67.636320 Y165.202223 Z-1.000000 F400.000000
G01 X135.122709 Y98.518403 Z-1.000000
G01 X66.119375 Y98.518403 Z-1.000000
G01 X66.119375 Y98.236181 Z-1.000000
G01 X135.466667 Y98.236181 Z-1.000000
G01 X135.810626 Y98.236181 Z-1.000000
G01 X135.563681 Y98.474306 Z-1.000000
G01 X67.830348 Y165.405070 Z-1.000000
G01 X67.830348 Y165.405070 Z-1.000000
G00 Z5.000000


(Pie de pagina)
M5
G00 X0.0000 Y0.0000
M2
(Usando pie por defecto. Para añadir tu propio pie crea un archivo "footer" en el directorio de salida.)
(end)
%