%
(Encabezamiento)
(Generado por gcodetools desde Inkscape.)
(Usando encabezamiento por defecto. Para generar tu propio encabezamiento crea un archivo "header" en el directorio de salida.)
M3
(Fin Encabezamiento.)
G21 (Todas las unidades en mm)
 
G00 Z5.000000
G00 X92.330764 Y188.044584

G01 Z-1.000000 F1.0
G03 X74.067901 Y180.742768 Z-1.000000 I-0.000000 J-26.489895 F400.000000
G03 X66.754375 Y163.685279 Z-1.000000 I16.235007 J-17.057490
G03 X74.067903 Y146.627788 Z-1.000000 I23.548533 J0.000000
G03 X92.330764 Y139.325973 Z-1.000000 I18.262862 J19.188080
G03 X110.588178 Y146.628724 Z-1.000000 I0.000000 J26.473812
G03 X117.898334 Y163.685279 Z-1.000000 I-16.243679 J17.056555
G03 X110.588179 Y180.741832 Z-1.000000 I-23.553836 J-0.000000
G03 X92.330764 Y188.044584 Z-1.000000 I-18.257414 J-19.171060
G01 X92.330764 Y188.044584 Z-1.000000
G00 Z5.000000

G00 Z5.000000
G00 X92.330764 Y187.709446

G01 Z-1.000000 F1.0
G02 X110.353865 Y180.495940 Z-1.000000 I-0.000000 J-26.122308 F400.000000
G02 X117.554376 Y163.685279 Z-1.000000 I-16.023238 J-16.810662
G02 X110.352973 Y146.879806 Z-1.000000 I-23.209653 J0.000000
G02 X92.330764 Y139.669931 Z-1.000000 I-18.022209 J18.919727
G02 X74.303103 Y146.878870 Z-1.000000 I0.000000 J26.145692
G02 X67.098334 Y163.685279 Z-1.000000 I15.999588 J16.806408
G02 X74.302211 Y180.496876 Z-1.000000 I23.218444 J-0.000000
G02 X92.330764 Y187.709446 Z-1.000000 I18.028553 J-18.925818
G01 X92.330764 Y187.709446 Z-1.000000
G00 Z5.000000


(Pie de pagina)
M5
G00 X0.0000 Y0.0000
M2
(Usando pie por defecto. Para añadir tu propio pie crea un archivo "footer" en el directorio de salida.)
(end)
%