%
(Encabezamiento)
(Generado por gcodetools desde Inkscape.)
(Usando encabezamiento por defecto. Para generar tu propio encabezamiento crea un archivo "header" en el directorio de salida.)
M3
(Fin Encabezamiento.)
G21 (Todas las unidades en mm)
 
G00 Z5.000000
G00 X84.904792 Y167.892154

G01 Z-1.000000 F1.0
G01 X84.904792 Y167.724584 Z-1.000000 F400.000000
G01 X84.904792 Y135.463056 Z-1.000000
G01 X84.904792 Y135.295487 Z-1.000000
G01 X85.072362 Y135.295487 Z-1.000000
G01 X118.127640 Y135.295487 Z-1.000000
G01 X118.295209 Y135.295487 Z-1.000000
G01 X118.295209 Y135.463056 Z-1.000000
G01 X118.295209 Y167.724584 Z-1.000000
G01 X118.295209 Y167.892154 Z-1.000000
G01 X118.127640 Y167.892154 Z-1.000000
G01 X85.072362 Y167.892154 Z-1.000000
G01 X84.904792 Y167.892154 Z-1.000000
G01 X84.904792 Y167.892154 Z-1.000000
G00 Z5.000000

G00 Z5.000000
G00 X85.239931 Y167.548195

G01 Z-1.000000 F1.0
G01 X117.960070 Y167.548195 Z-1.000000 F400.000000
G01 X117.960070 Y135.639445 Z-1.000000
G01 X85.239931 Y135.639445 Z-1.000000
G01 X85.239931 Y167.548195 Z-1.000000
G01 X85.239931 Y167.548195 Z-1.000000
G00 Z5.000000

G00 Z5.000000
G00 X33.231667 Y168.359584

G01 Z-1.000000 F1.0
G01 X65.951806 Y168.359584 Z-1.000000 F400.000000
G01 X65.951806 Y136.442015 Z-1.000000
G01 X33.231667 Y136.442015 Z-1.000000
G01 X33.231667 Y168.359584 Z-1.000000
G01 X33.231667 Y168.359584 Z-1.000000
G00 Z5.000000

G00 Z5.000000
G00 X32.887709 Y168.694723

G01 Z-1.000000 F1.0
G01 X32.887709 Y168.527154 Z-1.000000 F400.000000
G01 X32.887709 Y136.274445 Z-1.000000
G01 X32.887709 Y136.106876 Z-1.000000
G01 X33.064097 Y136.106876 Z-1.000000
G01 X66.119375 Y136.106876 Z-1.000000
G01 X66.286945 Y136.106876 Z-1.000000
G01 X66.286945 Y136.274445 Z-1.000000
G01 X66.286945 Y168.527154 Z-1.000000
G01 X66.286945 Y168.694723 Z-1.000000
G01 X66.119375 Y168.694723 Z-1.000000
G01 X33.064097 Y168.694723 Z-1.000000
G01 X32.887709 Y168.694723 Z-1.000000
G01 X32.887709 Y168.694723 Z-1.000000
G00 Z5.000000


(Pie de pagina)
M5
G00 X0.0000 Y0.0000
M2
(Usando pie por defecto. Para añadir tu propio pie crea un archivo "footer" en el directorio de salida.)
(end)
%