%
(Header)
(Generated by gcodetools from Inkscape.)
(Using default header. To add your own header create file "header" in the output dir.)
M3
(Header end.)
G21 (All units in mm)

(Start cutting path id: rect37846)
(Change tool to Cylindrical cutter)

G00 Z5.000000
G00 X17.030347 Y35.453063

G01 Z-1.000000 F100.0(Penetrate)
G01 X17.030347 Y35.415581 Z-1.000000 F400.000000
G01 X17.030347 Y28.551299 Z-1.000000
G01 X24.358755 Y28.551299 Z-1.000000
G01 X24.358755 Y35.453063 Z-1.000000
G01 X17.030347 Y35.453063 Z-1.000000
G00 Z5.000000

(End cutting path id: rect37846)


(Start cutting path id: rect37846)
(Change tool to Cylindrical cutter)

G00 Z5.000000
G00 X17.105313 Y35.378100

G01 Z-1.000000 F100.0(Penetrate)
G01 X24.284340 Y35.378100 Z-1.000000 F400.000000
G01 X24.284340 Y28.625713 Z-1.000000
G01 X17.105313 Y28.625713 Z-1.000000
G01 X17.105313 Y35.378100 Z-1.000000
G00 Z5.000000

(End cutting path id: rect37846)


(Start cutting path id: rect37844)
(Change tool to Cylindrical cutter)

G00 Z5.000000
G00 X17.318633 Y47.112369

G01 Z-1.000000 F100.0(Penetrate)
G01 X23.643828 Y47.112369 Z-1.000000 F400.000000
G01 X23.643828 Y39.933341 Z-1.000000
G01 X17.318633 Y39.933341 Z-1.000000
G01 X17.318633 Y47.112369 Z-1.000000
G00 Z5.000000

(End cutting path id: rect37844)


(Start cutting path id: rect37844)
(Change tool to Cylindrical cutter)

G00 Z5.000000
G00 X17.243668 Y47.186785

G01 Z-1.000000 F100.0(Penetrate)
G01 X17.243668 Y47.149854 Z-1.000000 F400.000000
G01 X17.243668 Y39.858377 Z-1.000000
G01 X23.718794 Y39.858377 Z-1.000000
G01 X23.718794 Y47.186785 Z-1.000000
G01 X17.243668 Y47.186785 Z-1.000000
G00 Z5.000000

(End cutting path id: rect37844)


(Footer)
M5
G00 X0.0000 Y0.0000
M2
(Using default footer. To add your own footer create file "footer" in the output dir.)
(end)
%