%
(Header)
(Generated by gcodetools from Inkscape.)
(Using default header. To add your own header create file "header" in the output dir.)
M3
(Header end.)
G21 (All units in mm)

(Start cutting path id: rect23007)
(Change tool to Cylindrical cutter)

G00 Z5.000000
G00 X17.670308 Y56.573980

G01 Z-1.000000 F100.0(Penetrate)
G01 X17.670308 Y56.537049 Z-1.000000 F400.000000
G01 X17.670308 Y39.431736 Z-1.000000
G01 X34.813105 Y39.431736 Z-1.000000
G01 X34.813105 Y56.573980 Z-1.000000
G01 X17.670308 Y56.573980 Z-1.000000
G00 Z5.000000

(End cutting path id: rect23007)


(Start cutting path id: rect23007)
(Change tool to Cylindrical cutter)

G00 Z5.000000
G00 X17.745274 Y56.499566

G01 Z-1.000000 F100.0(Penetrate)
G01 X34.738138 Y56.499566 Z-1.000000 F400.000000
G01 X34.738138 Y39.506703 Z-1.000000
G01 X17.745274 Y39.506703 Z-1.000000
G01 X17.745274 Y56.499566 Z-1.000000
G00 Z5.000000

(End cutting path id: rect23007)


(Footer)
M5
G00 X0.0000 Y0.0000
M2
(Using default footer. To add your own footer create file "footer" in the output dir.)
(end)
%