%
(Header)
(Generated by gcodetools from Inkscape.)
(Using default header. To add your own header create file "header" in the output dir.)
M3
(Header end.)
G21 (All units in mm)

(Start cutting path id: rect18151)
(Change tool to Cylindrical cutter)

G00 Z5.000000
G00 X16.177066 Y51.453743

G01 Z-1.000000 F100.0(Penetrate)
G01 X16.177066 Y51.416258 Z-1.000000 F400.000000
G01 X16.177066 Y37.725175 Z-1.000000
G01 X29.692312 Y37.725175 Z-1.000000
G01 X29.692312 Y51.453743 Z-1.000000
G01 X16.177066 Y51.453743 Z-1.000000
G00 Z5.000000

(End cutting path id: rect18151)


(Start cutting path id: rect18151)
(Change tool to Cylindrical cutter)

G00 Z5.000000
G00 X16.251480 Y51.379326

G01 Z-1.000000 F100.0(Penetrate)
G01 X29.617899 Y51.379326 Z-1.000000 F400.000000
G01 X29.617899 Y37.799589 Z-1.000000
G01 X16.251480 Y37.799589 Z-1.000000
G01 X16.251480 Y51.379326 Z-1.000000
G00 Z5.000000

(End cutting path id: rect18151)


(Footer)
M5
G00 X0.0000 Y0.0000
M2
(Using default footer. To add your own footer create file "footer" in the output dir.)
(end)
%