%
(Header)
(Generated by gcodetools from Inkscape.)
(Using default header. To add your own header create file "header" in the output dir.)
M3
(Header end.)
G21 (All units in mm)

(Start cutting path id: path32756)
(Change tool to Cylindrical cutter)

G00 Z5.000000
G00 X18.411918 Y5.120315

G01 Z-1.000000 F100.0(Penetrate)
G01 X17.837494 Y5.120315 Z-1.000000 F400.000000
G01 X17.440024 Y6.250107 Z-1.000000
G01 X15.686805 Y6.250107 Z-1.000000
G01 X15.289336 Y5.120315 Z-1.000000
G01 X14.742135 Y5.120315 Z-1.000000
G01 X16.217671 Y9.173955 Z-1.000000
G01 X16.936382 Y9.173955 Z-1.000000
G01 X18.411918 Y5.120315 Z-1.000000
G00 Z5.000000

(End cutting path id: path32756)


(Start cutting path id: path32756)
(Change tool to Cylindrical cutter)

G00 Z5.000000
G00 X17.273958 Y6.712915

G01 Z-1.000000 F100.0(Penetrate)
G01 X16.563415 Y8.702983 Z-1.000000 F400.000000
G01 X15.850148 Y6.712915 Z-1.000000
G01 X17.273958 Y6.712915 Z-1.000000
G00 Z5.000000

(End cutting path id: path32756)


(Start cutting path id: path32754)
(Change tool to Cylindrical cutter)

G00 Z5.000000
G00 X14.676798 Y5.120315

G01 Z-1.000000 F100.0(Penetrate)
G01 X12.112306 Y5.120315 Z-1.000000 F400.000000
G01 X12.112306 Y9.173955 Z-1.000000
G01 X12.651339 Y9.173955 Z-1.000000
G01 X12.651339 Y5.599458 Z-1.000000
G01 X14.676798 Y5.599458 Z-1.000000
G01 X14.676798 Y5.120315 Z-1.000000
G00 Z5.000000

(End cutting path id: path32754)


(Start cutting path id: path32752)
(Change tool to Cylindrical cutter)

G00 Z5.000000
G00 X10.696663 Y7.145776

G01 Z-1.000000 F100.0(Penetrate)
G03 X10.589680 Y7.896725 Z-1.000000 I-2.689088 J0.000000 F400.000000
G03 X10.342752 Y8.362685 Z-1.000000 I-1.248007 J-0.362955
G03 X9.932986 Y8.674534 Z-1.000000 I-0.865507 J-0.712126
G03 X9.376303 Y8.792822 Z-1.000000 I-0.556683 J-1.250774
G03 X8.814409 Y8.674039 Z-1.000000 I-0.000000 J-1.388379
G03 X8.404409 Y8.362685 Z-1.000000 I0.451515 J-1.020196
G03 X8.159481 Y7.897212 Z-1.000000 I1.005805 J-0.826422
G03 X8.053221 Y7.145776 Z-1.000000 I2.603813 J-0.751436
G03 X8.162291 Y6.388068 Z-1.000000 I2.686431 J-0.000000
G03 X8.412577 Y5.923421 Z-1.000000 I1.225041 J0.360145
G03 X8.825214 Y5.616812 Z-1.000000 I0.872063 J0.742661
G03 X9.376303 Y5.501451 Z-1.000000 I0.551089 J1.258617
G03 X9.927026 Y5.617034 Z-1.000000 I0.000000 J1.369811
G03 X10.337307 Y5.923421 Z-1.000000 I-0.456021 J1.038553
G03 X10.587592 Y6.388068 Z-1.000000 I-0.974756 J0.824792
G03 X10.696663 Y7.145776 Z-1.000000 I-2.577361 J0.757708
G01 X10.696663 Y7.145776 Z-1.000000
G00 Z5.000000

(End cutting path id: path32752)


(Start cutting path id: path32752)
(Change tool to Cylindrical cutter)

G00 Z5.000000
G00 X10.745666 Y8.708427

G01 Z-1.000000 F100.0(Penetrate)
G02 X10.957992 Y8.415489 Z-1.000000 I-1.206453 J-1.097879 F400.000000
G02 X11.124078 Y8.041442 Z-1.000000 I-1.815496 J-1.030019
G02 X11.220823 Y7.640670 Z-1.000000 I-2.196792 J-0.742363
G02 X11.257475 Y7.145776 Z-1.000000 I-3.322855 J-0.494894
G02 X11.220209 Y6.651059 Z-1.000000 I-3.302406 J0.000000
G02 X11.121356 Y6.247387 Z-1.000000 I-2.291291 J0.347165
G02 X10.953298 Y5.873141 Z-1.000000 I-2.023452 J0.683788
G02 X10.745666 Y5.588567 Z-1.000000 I-1.368024 J0.780112
G02 X10.471393 Y5.347801 Z-1.000000 I-1.211751 J1.103777
G02 X10.152184 Y5.174765 Z-1.000000 I-0.927918 J1.330832
G02 X9.804410 Y5.074035 Z-1.000000 I-0.649695 J1.592388
G02 X9.373580 Y5.035923 Z-1.000000 I-0.430829 J2.416021
G02 X8.953512 Y5.073800 Z-1.000000 I0.000000 J2.348281
G02 X8.594977 Y5.177485 Z-1.000000 I0.328934 J1.809157
G02 X8.270288 Y5.353112 Z-1.000000 I0.633104 J1.558396
G02 X8.001496 Y5.588567 Z-1.000000 I0.897494 J1.295716
G02 X7.790802 Y5.878328 Z-1.000000 I1.217182 J1.106529
G02 X7.623083 Y6.250107 Z-1.000000 I1.850579 J1.058563
G02 X7.528530 Y6.647996 Z-1.000000 I2.196401 J0.732130
G02 X7.492409 Y7.145776 Z-1.000000 I3.411881 J0.497781
G02 X7.528264 Y7.635433 Z-1.000000 I3.361434 J0.000000
G02 X7.623083 Y8.033275 Z-1.000000 I2.307691 J-0.339783
G02 X7.788864 Y8.407718 Z-1.000000 I2.004555 J-0.663576
G02 X8.004218 Y8.708427 Z-1.000000 I1.500085 J-0.846823
G02 X8.268159 Y8.940339 Z-1.000000 I1.108265 J-0.995171
G02 X8.597699 Y9.116785 Z-1.000000 I0.955680 J-1.388921
G02 X8.961463 Y9.221062 Z-1.000000 I0.708409 J-1.784632
G02 X9.373580 Y9.258351 Z-1.000000 I0.412118 J-2.258704
G02 X9.801319 Y9.219187 Z-1.000000 I-0.000000 J-2.355418
G02 X10.154907 Y9.114065 Z-1.000000 I-0.315482 J-1.708372
G02 X10.480113 Y8.939016 Z-1.000000 I-0.645347 J-1.588533
G02 X10.745666 Y8.708427 Z-1.000000 I-0.880103 J-1.281756
G01 X10.745666 Y8.708427 Z-1.000000
G00 Z5.000000

(End cutting path id: path32752)


(Start cutting path id: path32750)
(Change tool to Cylindrical cutter)

G00 Z5.000000
G00 X6.632133 Y5.120315

G01 Z-1.000000 F100.0(Penetrate)
G01 X6.093100 Y5.120315 Z-1.000000 F400.000000
G01 X6.093100 Y7.104939 Z-1.000000
G01 X4.070363 Y7.104939 Z-1.000000
G01 X4.070363 Y5.120315 Z-1.000000
G01 X3.531330 Y5.120315 Z-1.000000
G01 X3.531330 Y9.173955 Z-1.000000
G01 X4.070363 Y9.173955 Z-1.000000
G01 X4.070363 Y7.584079 Z-1.000000
G01 X6.093100 Y7.584079 Z-1.000000
G01 X6.093100 Y9.173955 Z-1.000000
G01 X6.632133 Y9.173955 Z-1.000000
G01 X6.632133 Y5.120315 Z-1.000000
G00 Z5.000000

(End cutting path id: path32750)


(Footer)
M5
G00 X0.0000 Y0.0000
M2
(Using default footer. To add your own footer create file "footer" in the output dir.)
(end)
%