%
(Encabezamiento)
(Generado por gcodetools desde Inkscape.)
(Usando encabezamiento por defecto. Para generar tu propio encabezamiento crea un archivo "header" en el directorio de salida.)
M3
(Fin Encabezamiento.)
G21 (Todas las unidades en mm)
 
G00 Z5.000000
G00 X72.830973 Y210.181390

G01 Z-1.000000 F1.0
G01 X72.733959 Y210.102015 Z-1.000000 F400.000000
G01 X49.027292 Y192.092709 Z-1.000000
G01 X48.930278 Y192.022154 Z-1.000000
G01 X48.974375 Y191.898682 Z-1.000000
G01 X58.781598 Y163.799932 Z-1.000000
G01 X58.816875 Y163.685279 Z-1.000000
G01 X58.940348 Y163.685279 Z-1.000000
G01 X88.705973 Y164.329098 Z-1.000000
G01 X88.829445 Y164.329098 Z-1.000000
G01 X88.864723 Y164.443751 Z-1.000000
G01 X97.446042 Y192.948196 Z-1.000000
G01 X97.481320 Y193.062848 Z-1.000000
G01 X97.384306 Y193.133404 Z-1.000000
G01 X72.927987 Y210.110835 Z-1.000000
G01 X72.830973 Y210.181390 Z-1.000000
G01 X72.830973 Y210.181390 Z-1.000000
G00 Z5.000000

G00 Z5.000000
G00 X72.830973 Y209.758057

G01 Z-1.000000 F1.0
G01 X97.084445 Y192.930557 Z-1.000000 F400.000000
G01 X88.573681 Y164.664237 Z-1.000000
G01 X59.055000 Y164.020418 Z-1.000000
G01 X49.335973 Y191.889862 Z-1.000000
G01 X72.830973 Y209.758057 Z-1.000000
G01 X72.830973 Y209.758057 Z-1.000000
G00 Z5.000000


(Pie de pagina)
M5
G00 X0.0000 Y0.0000
M2
(Usando pie por defecto. Para añadir tu propio pie crea un archivo "footer" en el directorio de salida.)
(end)
%