%
(Encabezamiento)
(Generado por gcodetools desde Inkscape.)
(Usando encabezamiento por defecto. Para generar tu propio encabezamiento crea un archivo "header" en el directorio de salida.)
M3
(Fin Encabezamiento.)
G21 (Todas las unidades en mm)
 
G00 Z5.000000
G00 X68.139028 Y188.044584

G01 Z-1.000000 F1.0
G03 X48.918785 Y180.083299 Z-1.000000 I0.000000 J-27.181528 F400.000000
G03 X40.957500 Y160.863056 Z-1.000000 I19.220243 J-19.220243
G03 X48.918785 Y141.642814 Z-1.000000 I27.181528 J-0.000000
G03 X68.139028 Y133.681529 Z-1.000000 I19.220243 J19.220243
G03 X87.359271 Y141.642814 Z-1.000000 I-0.000000 J27.181528
G03 X95.320556 Y160.863056 Z-1.000000 I-19.220243 J19.220243
G03 X87.359271 Y180.083299 Z-1.000000 I-27.181528 J0.000000
G03 X68.139028 Y188.044584 Z-1.000000 I-19.220243 J-19.220243
G01 X68.139028 Y188.044584 Z-1.000000
G00 Z5.000000

G00 Z5.000000
G00 X68.139028 Y187.709446

G01 Z-1.000000 F1.0
G02 X87.116969 Y179.845407 Z-1.000000 I-0.000000 J-26.831338 F400.000000
G02 X94.976598 Y160.863056 Z-1.000000 I-18.993001 J-18.982351
G02 X87.116056 Y141.886029 Z-1.000000 I-26.837570 J-0.000000
G02 X68.139028 Y134.025487 Z-1.000000 I-18.977027 J18.977027
G02 X49.156678 Y141.885116 Z-1.000000 I-0.000000 J26.852630
G02 X41.292639 Y160.863056 Z-1.000000 I18.967299 J18.977941
G02 X49.155764 Y179.846320 Z-1.000000 I26.846389 J0.000000
G02 X68.139028 Y187.709446 Z-1.000000 I18.983264 J-18.983264
G01 X68.139028 Y187.709446 Z-1.000000
G00 Z5.000000


(Pie de pagina)
M5
G00 X0.0000 Y0.0000
M2
(Usando pie por defecto. Para añadir tu propio pie crea un archivo "footer" en el directorio de salida.)
(end)
%