%
(Encabezamiento)
(Generado por gcodetools desde Inkscape.)
(Usando encabezamiento por defecto. Para generar tu propio encabezamiento crea un archivo "header" en el directorio de salida.)
M3
(Fin Encabezamiento.)
G21 (Todas las unidades en mm)
 
G00 Z5.000000
G00 X96.758126 Y199.165904

G01 Z-1.000000 F1.0
G03 X89.666994 Y198.438677 Z-1.000000 I-0.000000 J-34.936142 F400.000000
G03 X83.262414 Y196.441717 Z-1.000000 I6.968850 J-33.619006
G03 X77.352222 Y193.231507 Z-1.000000 I13.459138 J-31.824706
G03 X72.242491 Y189.012302 Z-1.000000 I19.544833 J-28.873770
G03 X68.023286 Y183.902571 Z-1.000000 I24.654564 J-24.654564
G03 X64.813076 Y177.992379 Z-1.000000 I28.614496 J-19.369329
G03 X62.816116 Y171.587799 Z-1.000000 I31.622047 J-13.373430
G03 X62.088889 Y164.496668 Z-1.000000 I34.208915 J-7.091132
G03 X62.816047 Y157.405431 Z-1.000000 I34.940416 J0.000000
G03 X64.813076 Y150.999579 Z-1.000000 I33.633684 J6.971110
G03 X68.023272 Y145.087974 Z-1.000000 I31.841477 J13.463546
G03 X72.242491 Y139.976622 Z-1.000000 I28.888310 J19.549086
G03 X77.352365 Y135.755706 Z-1.000000 I24.665934 J24.657283
G03 X83.262414 Y132.544176 Z-1.000000 I19.373827 J28.609096
G03 X89.667114 Y130.546209 Z-1.000000 I13.375359 J31.611708
G03 X96.758126 Y129.818612 Z-1.000000 I7.091011 J34.189963
G03 X103.849240 Y130.546141 Z-1.000000 I-0.000000 J34.921784
G03 X110.255214 Y132.544176 Z-1.000000 I-6.972958 J33.624492
G03 X116.166678 Y135.755693 Z-1.000000 I-13.468168 J31.837348
G03 X121.278168 Y139.976622 Z-1.000000 I-19.560345 J28.892764
G03 X125.499100 Y145.088116 Z-1.000000 I-24.671857 J24.671857
G03 X128.710617 Y150.999579 Z-1.000000 I-28.625822 J19.379627
G03 X130.708653 Y157.405553 Z-1.000000 I-31.626456 J13.378933
G03 X131.436181 Y164.496668 Z-1.000000 I-34.194255 J7.091114
G03 X130.708585 Y171.587677 Z-1.000000 I-34.917560 J-0.000000
G03 X128.710617 Y177.992379 Z-1.000000 I-33.609675 J-6.970657
G03 X125.499087 Y183.902428 Z-1.000000 I-31.820609 J-13.463770
G03 X121.278168 Y189.012302 Z-1.000000 I-28.878153 J-19.556033
G03 X116.166820 Y193.231520 Z-1.000000 I-24.660464 J-24.669117
G03 X110.255214 Y196.441717 Z-1.000000 I-19.375133 J-28.631235
G03 X103.849362 Y198.438745 Z-1.000000 I-13.377003 J-31.636801
G03 X96.758126 Y199.165904 Z-1.000000 I-7.091237 J-34.213209
G01 X96.758126 Y199.165904 Z-1.000000
G00 Z5.000000


(Pie de pagina)
M5
G00 X0.0000 Y0.0000
M2
(Usando pie por defecto. Para añadir tu propio pie crea un archivo "footer" en el directorio de salida.)
(end)
%