%
(Encabezamiento)
(Generado por gcodetools desde Inkscape.)
(Usando encabezamiento por defecto. Para generar tu propio encabezamiento crea un archivo "header" en el directorio de salida.)
M3
(Fin Encabezamiento.)
G21 (Todas las unidades en mm)
 
G00 Z5.000000
G00 X19.753036 Y42.498551

G01 Z-1.000000 F1.0
G03 X16.372500 Y42.151504 Z-1.000000 I0.000000 J-16.638210 F400.000000
G03 X13.319145 Y41.198545 Z-1.000000 I3.323820 J-16.017842
G03 X10.501741 Y39.666884 Z-1.000000 I6.420453 J-15.167120
G03 X8.065708 Y37.653831 Z-1.000000 I9.327788 J-13.768203
G03 X6.054354 Y35.216319 Z-1.000000 I11.767161 J-11.758475
G03 X4.524025 Y32.397360 Z-1.000000 I13.657654 J-9.239203
G03 X3.572005 Y29.342856 Z-1.000000 I15.089975 J-6.378816
G03 X3.225397 Y25.962092 Z-1.000000 I16.314411 J-3.380764
G03 X3.572073 Y22.581433 Z-1.000000 I16.656793 J0.000000
G03 X4.524025 Y19.528202 Z-1.000000 I16.027170 J3.322011
G03 X6.054368 Y16.710654 Z-1.000000 I15.171261 J6.415857
G03 X8.065708 Y14.274773 Z-1.000000 I13.763562 J9.316422
G03 X10.501603 Y12.263417 Z-1.000000 I11.752407 J11.752298
G03 X13.319145 Y10.733082 Z-1.000000 I9.233116 J13.640450
G03 X16.372375 Y9.781140 Z-1.000000 I6.375293 J15.075534
G03 X19.753036 Y9.434464 Z-1.000000 I3.380660 J16.310184
G03 X23.133799 Y9.781071 Z-1.000000 I-0.000000 J16.661086
G03 X26.188304 Y10.733082 Z-1.000000 I-3.324361 J16.042302
G03 X29.007258 Y12.263404 Z-1.000000 I-6.419945 J15.187472
G03 X31.444771 Y14.274773 Z-1.000000 I-9.320867 J13.778315
G03 X33.457825 Y16.710797 Z-1.000000 I-11.754977 J11.763718
G03 X34.989488 Y19.528202 Z-1.000000 I-13.635380 J9.237825
G03 X35.942447 Y22.581556 Z-1.000000 I-15.064883 J6.377174
G03 X36.289494 Y25.962092 Z-1.000000 I-16.291164 J3.380536
G03 X35.942515 Y29.342733 Z-1.000000 I-16.642432 J-0.000000
G03 X34.989488 Y32.397360 Z-1.000000 I-16.032656 J-3.326121
G03 X33.457839 Y35.216176 Z-1.000000 I-15.183758 J-6.424809
G03 X31.444771 Y37.653831 Z-1.000000 I-13.782982 J-9.332237
G03 X29.007120 Y39.666897 Z-1.000000 I-11.769797 J-11.769797
G03 X26.188304 Y41.198545 Z-1.000000 I-9.243643 J-13.652151
G03 X23.133675 Y42.151573 Z-1.000000 I-6.380748 J-15.079629
G03 X19.753036 Y42.498551 Z-1.000000 I-3.380639 J-16.295454
G01 X19.753036 Y42.498551 Z-1.000000
G00 Z5.000000


(Pie de pagina)
M5
G00 X0.0000 Y0.0000
M2
(Usando pie por defecto. Para añadir tu propio pie crea un archivo "footer" en el directorio de salida.)
(end)
%