%
(Encabezamiento)
(Generado por gcodetools desde Inkscape.)
(Usando encabezamiento por defecto. Para generar tu propio encabezamiento crea un archivo "header" en el directorio de salida.)
M3
(Fin Encabezamiento.)
G21 (Todas las unidades en mm)
 
G00 Z5.000000
G00 X77.540556 Y168.200834

G01 Z-1.000000 F1.0
G03 X75.834298 Y168.112302 Z-1.000000 I-0.000000 J-16.486430 F400.000000
G03 X74.208482 Y167.859173 Z-1.000000 I1.677694 J-16.123384
G03 X72.616074 Y167.442155 Z-1.000000 I3.296827 J-15.837992
G03 X71.105520 Y166.879255 Z-1.000000 I4.905496 J-15.472263
G03 X69.657578 Y166.169356 Z-1.000000 I6.446726 J-14.980604
G03 X68.297990 Y165.328684 Z-1.000000 I7.982961 J-14.430307
G03 X67.025650 Y164.360472 Z-1.000000 I9.397189 J-13.669069
G03 X65.852210 Y163.275063 Z-1.000000 I10.770438 J-12.820979
G03 X64.787390 Y162.082841 Z-1.000000 I11.984129 J-11.775118
G03 X63.834496 Y160.785996 Z-1.000000 I13.097446 J-10.622228
G03 X63.009639 Y159.404456 Z-1.000000 I14.056367 J-9.329456
G03 X62.311165 Y157.929088 Z-1.000000 I14.884994 J-7.949931
G03 X61.758634 Y156.393605 Z-1.000000 I15.585764 J-6.475560
G03 X61.348533 Y154.771939 Z-1.000000 I16.209744 J-4.961948
G03 X61.099919 Y153.118433 Z-1.000000 I16.698869 J-3.356208
G03 X61.012917 Y151.382154 Z-1.000000 I17.281691 J-1.736279
G03 X61.099919 Y149.645874 Z-1.000000 I17.368767 J-0.000000
G03 X61.348530 Y147.992368 Z-1.000000 I16.947834 J1.702730
G03 X61.758633 Y146.370702 Z-1.000000 I16.620265 J3.340409
G03 X62.311162 Y144.835219 Z-1.000000 I16.138681 J4.940195
G03 X63.009638 Y143.359851 Z-1.000000 I15.583818 J6.474752
G03 X63.834496 Y141.978309 Z-1.000000 I14.881502 J7.948069
G03 X64.787391 Y140.681463 Z-1.000000 I14.050304 J9.325358
G03 X65.852210 Y139.489244 Z-1.000000 I13.048709 J10.582708
G03 X67.025650 Y138.403835 Z-1.000000 I11.943879 J11.735570
G03 X68.297990 Y137.435623 Z-1.000000 I10.669529 J12.700857
G03 X69.657577 Y136.594954 Z-1.000000 I9.342718 J13.589943
G03 X71.105520 Y135.885052 Z-1.000000 I7.894869 J14.271068
G03 X72.616073 Y135.322152 Z-1.000000 I6.415977 J14.909150
G03 X74.208480 Y134.905134 Z-1.000000 I4.889264 J15.421081
G03 X75.834298 Y134.652005 Z-1.000000 I3.303524 J15.870365
G03 X77.540556 Y134.563473 Z-1.000000 I1.706258 J16.397898
G03 X79.246824 Y134.651995 Z-1.000000 I0.000000 J16.488480
G03 X80.873008 Y134.905134 Z-1.000000 I-1.678398 J16.132086
G03 X82.465800 Y135.322134 Z-1.000000 I-3.298478 J15.849457
G03 X83.976970 Y135.885052 Z-1.000000 I-4.908606 J15.487154
G03 X85.425565 Y136.594945 Z-1.000000 I-6.451194 J14.997134
G03 X86.785911 Y137.435623 Z-1.000000 I-7.987936 J14.446657
G03 X88.059059 Y138.403844 Z-1.000000 I-9.402636 J13.685026
G03 X89.233311 Y139.489244 Z-1.000000 I-10.774532 J12.834431
G03 X90.298975 Y140.681493 Z-1.000000 I-11.987531 J11.787175
G03 X91.252644 Y141.978309 Z-1.000000 I-13.097314 J10.630736
G03 X92.078267 Y143.359894 Z-1.000000 I-14.054871 J9.336547
G03 X92.777390 Y144.835219 Z-1.000000 I-14.878386 J7.953834
G03 X93.330493 Y146.370743 Z-1.000000 I-15.576782 J6.478208
G03 X93.741020 Y147.992368 Z-1.000000 I-16.195703 J4.962852
G03 X93.989912 Y149.645893 Z-1.000000 I-16.682632 J3.356599
G03 X94.077014 Y151.382154 Z-1.000000 I-17.261451 J1.736261
G03 X93.989912 Y153.118415 Z-1.000000 I-17.348553 J-0.000000
G03 X93.741020 Y154.771939 Z-1.000000 I-16.931524 J-1.703075
G03 X93.330493 Y156.393564 Z-1.000000 I-16.606231 J-3.341227
G03 X92.777390 Y157.929088 Z-1.000000 I-16.129885 J-4.942684
G03 X92.078267 Y159.404413 Z-1.000000 I-15.577508 J-6.478510
G03 X91.252644 Y160.785999 Z-1.000000 I-14.880494 J-7.954961
G03 X90.298975 Y162.082815 Z-1.000000 I-14.050983 J-9.333920
G03 X89.233311 Y163.275063 Z-1.000000 I-13.053196 J-10.594926
G03 X88.059059 Y164.360463 Z-1.000000 I-11.948783 J-11.749031
G03 X86.785911 Y165.328684 Z-1.000000 I-10.675784 J-12.716805
G03 X85.425565 Y166.169362 Z-1.000000 I-9.348281 J-13.605979
G03 X83.976970 Y166.879255 Z-1.000000 I-7.899790 J-14.287241
G03 X82.465800 Y167.442173 Z-1.000000 I-6.419776 J-14.924236
G03 X80.873008 Y167.859173 Z-1.000000 I-4.891270 J-15.432457
G03 X79.246824 Y168.112312 Z-1.000000 I-3.304582 J-15.878947
G03 X77.540556 Y168.200834 Z-1.000000 I-1.706268 J-16.399958
G01 X77.540556 Y168.200834 Z-1.000000
G00 Z5.000000


(Pie de pagina)
M5
G00 X0.0000 Y0.0000
M2
(Usando pie por defecto. Para añadir tu propio pie crea un archivo "footer" en el directorio de salida.)
(end)
%