%
(Encabezamiento)
(Generado por gcodetools desde Inkscape.)
(Usando encabezamiento por defecto. Para generar tu propio encabezamiento crea un archivo "header" en el directorio de salida.)
M3
(Fin Encabezamiento.)
G21 (Todas las unidades en mm)
 
G00 Z5.000000
G00 X60.473671 Y171.755070

G01 Z-1.000000 F1.0
G03 X56.813155 Y171.561995 Z-1.000000 I0.000000 J-34.796399 F400.000000
G03 X53.323289 Y171.009682 Z-1.000000 I3.605614 J-34.084330
G03 X49.907314 Y170.100448 Z-1.000000 I7.092187 J-33.516685
G03 X46.663304 Y168.871877 Z-1.000000 I10.586487 J-32.850499
G03 X43.557251 Y167.324345 Z-1.000000 I13.931544 J-31.852866
G03 X40.636423 Y165.489184 Z-1.000000 I17.323665 J-30.814173
G03 X37.906824 Y163.378712 Z-1.000000 I20.423835 J-29.235774
G03 X35.385340 Y161.009143 Z-1.000000 I23.515276 J-27.549217
G03 X33.100553 Y158.410329 Z-1.000000 I26.204244 J-25.341617
G03 X31.052763 Y155.579289 Z-1.000000 I28.761793 J-22.960549
G03 X29.282421 Y152.567460 Z-1.000000 I30.908003 J-20.193828
G03 X27.781387 Y149.347154 Z-1.000000 I32.843500 J-17.268836
G03 X26.595146 Y145.999103 Z-1.000000 I34.421061 J-14.079832
G03 X25.713915 Y142.460274 Z-1.000000 I35.878491 J-10.813515
G03 X25.179962 Y138.853986 Z-1.000000 I36.974390 J-7.317160
G03 X24.993046 Y135.066181 Z-1.000000 I38.285948 J-3.787805
G03 X25.179962 Y131.278376 Z-1.000000 I38.472864 J0.000000
G03 X25.713915 Y127.672089 Z-1.000000 I37.508343 J3.710873
G03 X26.595146 Y124.133260 Z-1.000000 I36.759722 J7.274687
G03 X27.781387 Y120.785209 Z-1.000000 I35.607303 J10.731781
G03 X29.282421 Y117.564903 Z-1.000000 I34.344534 J14.048529
G03 X31.052763 Y114.553073 Z-1.000000 I32.678345 J17.181998
G03 X33.100553 Y111.722034 Z-1.000000 I30.809583 J20.129509
G03 X35.385340 Y109.123220 Z-1.000000 I28.489031 J22.742803
G03 X37.906824 Y106.753651 Z-1.000000 I26.036760 J25.179648
G03 X40.636423 Y104.643179 Z-1.000000 I23.153433 J27.125302
G03 X43.557251 Y102.808018 Z-1.000000 I20.244493 J28.979012
G03 X46.663304 Y101.260486 Z-1.000000 I17.037597 J30.305334
G03 X49.907314 Y100.031915 Z-1.000000 I13.830497 J31.621928
G03 X53.323289 Y99.122681 Z-1.000000 I10.508161 J32.607450
G03 X56.813155 Y98.570368 Z-1.000000 I7.095480 J33.532017
G03 X60.473671 Y98.377292 Z-1.000000 I3.660516 J34.603324
G03 X64.134187 Y98.570368 Z-1.000000 I0.000000 J34.796399
G03 X67.624053 Y99.122681 Z-1.000000 I-3.605614 J34.084330
G03 X71.040028 Y100.031915 Z-1.000000 I-7.092187 J33.516685
G03 X74.284038 Y101.260486 Z-1.000000 I-10.586487 J32.850499
G03 X77.390091 Y102.808018 Z-1.000000 I-13.931544 J31.852866
G03 X80.310919 Y104.643179 Z-1.000000 I-17.323665 J30.814173
G03 X83.040518 Y106.753651 Z-1.000000 I-20.423835 J29.235774
G03 X85.562002 Y109.123220 Z-1.000000 I-23.515276 J27.549217
G03 X87.846789 Y111.722034 Z-1.000000 I-26.204244 J25.341617
G03 X89.894579 Y114.553073 Z-1.000000 I-28.761793 J22.960549
G03 X91.664921 Y117.564903 Z-1.000000 I-30.908003 J20.193828
G03 X93.165955 Y120.785209 Z-1.000000 I-32.843500 J17.268836
G03 X94.352196 Y124.133260 Z-1.000000 I-34.421061 J14.079832
G03 X95.233427 Y127.672089 Z-1.000000 I-35.878491 J10.813515
G03 X95.767380 Y131.278376 Z-1.000000 I-36.974390 J7.317160
G03 X95.954296 Y135.066181 Z-1.000000 I-38.285948 J3.787805
G03 X95.767380 Y138.853986 Z-1.000000 I-38.472864 J-0.000000
G03 X95.233427 Y142.460274 Z-1.000000 I-37.508343 J-3.710873
G03 X94.352196 Y145.999103 Z-1.000000 I-36.759722 J-7.274687
G03 X93.165955 Y149.347154 Z-1.000000 I-35.607303 J-10.731781
G03 X91.664921 Y152.567460 Z-1.000000 I-34.344534 J-14.048529
G03 X89.894579 Y155.579289 Z-1.000000 I-32.678345 J-17.181998
G03 X87.846789 Y158.410329 Z-1.000000 I-30.809583 J-20.129509
G03 X85.562002 Y161.009143 Z-1.000000 I-28.489031 J-22.742803
G03 X83.040518 Y163.378712 Z-1.000000 I-26.036760 J-25.179648
G03 X80.310919 Y165.489184 Z-1.000000 I-23.153433 J-27.125302
G03 X77.390091 Y167.324345 Z-1.000000 I-20.244493 J-28.979012
G03 X74.284038 Y168.871877 Z-1.000000 I-17.037597 J-30.305334
G03 X71.040028 Y170.100448 Z-1.000000 I-13.830497 J-31.621928
G03 X67.624053 Y171.009682 Z-1.000000 I-10.508161 J-32.607450
G03 X64.134187 Y171.561995 Z-1.000000 I-7.095480 J-33.532017
G03 X60.473671 Y171.755070 Z-1.000000 I-3.660516 J-34.603324
G01 X60.473671 Y171.755070 Z-1.000000
G00 Z5.000000


(Pie de pagina)
M5
G00 X0.0000 Y0.0000
M2
(Usando pie por defecto. Para añadir tu propio pie crea un archivo "footer" en el directorio de salida.)
(end)
%