%
(Encabezamiento)
(Generado por gcodetools desde Inkscape.)
(Usando encabezamiento por defecto. Para generar tu propio encabezamiento crea un archivo "header" en el directorio de salida.)
M3
(Fin Encabezamiento.)
G21 (Todas las unidades en mm)
 
G00 Z5.000000
G00 X24.994306 Y112.082709

G01 Z-1.000000 F1.0
G01 X24.994306 Y91.921459 Z-1.000000 F400.000000
G01 X45.155556 Y91.921459 Z-1.000000
G01 X45.155556 Y112.082709 Z-1.000000
G01 X24.994306 Y112.082709 Z-1.000000
G01 X24.994306 Y112.082709 Z-1.000000
G00 Z5.000000


(Pie de pagina)
M5
G00 X0.0000 Y0.0000
M2
(Usando pie por defecto. Para añadir tu propio pie crea un archivo "footer" en el directorio de salida.)
(end)
%