%
(Encabezamiento)
(Generado por gcodetools desde Inkscape.)
(Usando encabezamiento por defecto. Para generar tu propio encabezamiento crea un archivo "header" en el directorio de salida.)
M3
(Fin Encabezamiento.)
G21 (Todas las unidades en mm)
 
G00 Z5.000000
G00 X45.790556 Y185.628057

G01 Z-1.000000 F1.0
G01 X45.790556 Y185.460487 Z-1.000000 F400.000000
G01 X45.790556 Y140.304931 Z-1.000000
G01 X45.790556 Y140.137362 Z-1.000000
G01 X45.958125 Y140.137362 Z-1.000000
G01 X99.986042 Y140.137362 Z-1.000000
G01 X100.153612 Y140.137362 Z-1.000000
G01 X100.153612 Y140.304931 Z-1.000000
G01 X100.153612 Y185.460487 Z-1.000000
G01 X100.153612 Y185.628057 Z-1.000000
G01 X99.986042 Y185.628057 Z-1.000000
G01 X45.958125 Y185.628057 Z-1.000000
G01 X45.790556 Y185.628057 Z-1.000000
G01 X45.790556 Y185.628057 Z-1.000000
G00 Z5.000000

G00 Z5.000000
G00 X46.125695 Y185.292918

G01 Z-1.000000 F1.0
G01 X99.818473 Y185.292918 Z-1.000000 F400.000000
G01 X99.818473 Y140.472501 Z-1.000000
G01 X46.125695 Y140.472501 Z-1.000000
G01 X46.125695 Y185.292918 Z-1.000000
G01 X46.125695 Y185.292918 Z-1.000000
G00 Z5.000000


(Pie de pagina)
M5
G00 X0.0000 Y0.0000
M2
(Usando pie por defecto. Para añadir tu propio pie crea un archivo "footer" en el directorio de salida.)
(end)
%