%
(Encabezamiento)
(Generado por gcodetools desde Inkscape.)
(Usando encabezamiento por defecto. Para generar tu propio encabezamiento crea un archivo "header" en el directorio de salida.)
M3
(Fin Encabezamiento.)
G21 (Todas las unidades en mm)
 
G00 Z5.000000
G00 X66.930764 Y142.723979

G01 Z-1.000000 F1.0
G03 X58.377320 Y121.804536 Z-1.000000 I21.813816 J-21.127498 F400.000000
G03 X67.195348 Y100.928632 Z-1.000000 I28.655165 J-0.196325
G03 X86.330280 Y93.193500 Z-1.000000 I19.237924 J20.054916
G03 X105.365903 Y101.334326 Z-1.000000 I0.096727 J26.099654
G03 X112.285900 Y118.680356 Z-1.000000 I-18.301674 J17.354580
G03 X104.827917 Y135.871271 Z-1.000000 I-23.523444 J0.007975
G03 X89.266317 Y141.978801 Z-1.000000 I-15.475566 J-16.552012
G03 X73.915764 Y135.200993 Z-1.000000 I0.079552 J-20.952238
G01 X66.930764 Y142.723979 Z-1.000000
G01 X66.930764 Y142.723979 Z-1.000000
G00 Z5.000000


(Pie de pagina)
M5
G00 X0.0000 Y0.0000
M2
(Usando pie por defecto. Para añadir tu propio pie crea un archivo "footer" en el directorio de salida.)
(end)
%