%
(Encabezamiento)
(Generado por gcodetools desde Inkscape.)
(Usando encabezamiento por defecto. Para generar tu propio encabezamiento crea un archivo "header" en el directorio de salida.)
M3
(Fin Encabezamiento.)
G21 (Todas las unidades en mm)
 
G00 Z5.000000
G00 X55.384853 Y139.555279

G01 Z-1.000000 F1.0
G01 X55.234922 Y139.246598 Z-1.000000 F400.000000
G01 X47.456172 Y123.115834 Z-1.000000
G01 X29.764366 Y120.381806 Z-1.000000
G01 X29.429228 Y120.328890 Z-1.000000
G01 X29.676172 Y120.090765 Z-1.000000
G01 X42.605478 Y107.717084 Z-1.000000
G01 X39.747978 Y90.042917 Z-1.000000
G01 X39.695061 Y89.707778 Z-1.000000
G01 X39.994922 Y89.866528 Z-1.000000
G01 X55.764089 Y98.342014 Z-1.000000
G01 X71.692006 Y90.157570 Z-1.000000
G01 X71.991867 Y90.007639 Z-1.000000
G01 X71.930131 Y90.342778 Z-1.000000
G01 X68.746311 Y107.964028 Z-1.000000
G01 X81.446311 Y120.575834 Z-1.000000
G01 X81.693256 Y120.813959 Z-1.000000
G01 X81.349297 Y120.858056 Z-1.000000
G01 X63.613394 Y123.274584 Z-1.000000
G01 X55.534783 Y139.255417 Z-1.000000
G01 X55.384853 Y139.555279 Z-1.000000
G01 X55.384853 Y139.555279 Z-1.000000
G00 Z5.000000

G00 Z5.000000
G00 X55.393658 Y138.787987

G01 Z-1.000000 F1.0
G01 X63.348797 Y123.036459 Z-1.000000 F400.000000
G01 X63.384075 Y122.957084 Z-1.000000
G01 X63.472269 Y122.948279 Z-1.000000
G01 X80.961228 Y120.567029 Z-1.000000
G01 X68.437616 Y108.131612 Z-1.000000
G01 X68.375880 Y108.069876 Z-1.000000
G01 X68.393519 Y107.981681 Z-1.000000
G01 X71.533241 Y90.616195 Z-1.000000
G01 X55.843450 Y98.685987 Z-1.000000
G01 X55.764075 Y98.730084 Z-1.000000
G01 X55.684700 Y98.685987 Z-1.000000
G01 X40.136019 Y90.325154 Z-1.000000
G01 X42.958241 Y107.752376 Z-1.000000
G01 X42.975880 Y107.840570 Z-1.000000
G01 X42.914144 Y107.902306 Z-1.000000
G01 X30.161227 Y120.099598 Z-1.000000
G01 X47.597269 Y122.798348 Z-1.000000
G01 X47.685464 Y122.815987 Z-1.000000
G01 X47.729561 Y122.895362 Z-1.000000
G01 X55.393658 Y138.788001 Z-1.000000
G01 X55.393658 Y138.787987 Z-1.000000
G00 Z5.000000


(Pie de pagina)
M5
G00 X0.0000 Y0.0000
M2
(Usando pie por defecto. Para añadir tu propio pie crea un archivo "footer" en el directorio de salida.)
(end)
%