%
(Encabezamiento)
(Generado por gcodetools desde Inkscape.)
(Usando encabezamiento por defecto. Para generar tu propio encabezamiento crea un archivo "header" en el directorio de salida.)
M3
(Fin Encabezamiento.)
G21 (Todas las unidades en mm)
 
G00 Z5.000000
G00 X49.265417 Y194.967848

G01 Z-1.000000 F1.0
G01 X41.927639 Y179.013473 Z-1.000000 F400.000000
G01 X24.623889 Y176.006043 Z-1.000000
G01 X37.535556 Y164.099793 Z-1.000000
G01 X35.039653 Y146.707848 Z-1.000000
G01 X50.359028 Y155.306806 Z-1.000000
G01 X66.119375 Y147.563334 Z-1.000000
G01 X62.679792 Y164.787709 Z-1.000000
G01 X74.912362 Y177.381876 Z-1.000000
G01 X57.467500 Y179.436807 Z-1.000000
G01 X49.265417 Y194.967848 Z-1.000000
G01 X49.265417 Y194.967848 Z-1.000000
G00 Z5.000000


(Pie de pagina)
M5
G00 X0.0000 Y0.0000
M2
(Usando pie por defecto. Para añadir tu propio pie crea un archivo "footer" en el directorio de salida.)
(end)
%