%
(Encabezamiento)
(Generado por gcodetools desde Inkscape.)
(Usando encabezamiento por defecto. Para generar tu propio encabezamiento crea un archivo "header" en el directorio de salida.)
M3
(Fin Encabezamiento.)
G21 (Todas las unidades en mm)
 
G00 Z5.000000
G00 X92.392184 Y20.965082

G01 Z-1.000000 F1.0
G01 X103.564216 Y50.056022 Z-1.000000 F400.000000
G01 X107.711560 Y50.056022 Z-1.000000
G01 X119.617810 Y20.965082 Z-1.000000
G01 X115.232342 Y20.965082 Z-1.000000
G01 X111.839060 Y29.775707 Z-1.000000
G01 X99.674841 Y29.775707 Z-1.000000
G01 X96.479998 Y20.965082 Z-1.000000
G01 X92.392184 Y20.965082 Z-1.000000
G00 Z5.000000

G00 Z5.000000
G00 X100.786091 Y32.911021

G01 Z-1.000000 F1.0
G01 X110.648435 Y32.911021 Z-1.000000 F400.000000
G01 X107.612341 Y40.967583 Z-1.000000
G02 X106.283098 Y44.658473 Z-1.000000 I114.261673 J43.235179
G02 X105.548591 Y47.000083 Z-1.000000 I45.234991 J15.475139
G02 X104.884470 Y44.232551 Z-1.000000 I-35.364253 J7.022866
G02 X103.980935 Y41.443833 Z-1.000000 I-36.812152 J10.386289
G01 X100.786091 Y32.911021 Z-1.000000
G00 Z5.000000

G00 Z5.000000
G00 X72.806402 Y20.965082

G01 Z-1.000000 F1.0
G01 X72.806402 Y50.056022 Z-1.000000 F400.000000
G01 X76.656091 Y50.056022 Z-1.000000
G01 X76.656091 Y24.398053 Z-1.000000
G01 X90.983277 Y24.398053 Z-1.000000
G01 X90.983277 Y20.965082 Z-1.000000
G01 X72.806402 Y20.965082 Z-1.000000
G00 Z5.000000

G00 Z5.000000
G00 X44.171873 Y35.073989

G01 Z-1.000000 F1.0
G03 X44.990952 Y30.138514 Z-1.000000 I15.279088 J-0.000025 F400.000000
G03 X46.999607 Y26.789223 Z-1.000000 I8.811508 J3.007520
G03 X50.175077 Y24.563939 Z-1.000000 I6.858501 J6.408716
G03 X54.093748 Y23.763053 Z-1.000000 I3.918661 J9.186380
G03 X58.081113 Y24.579053 Z-1.000000 I0.000010 J10.150038
G03 X61.247418 Y26.818989 Z-1.000000 I-3.620961 J8.476343
G03 X63.220129 Y30.200337 Z-1.000000 I-6.756199 J6.207755
G03 X64.055309 Y35.490708 Z-1.000000 I-16.338827 J5.290487
G03 X63.721533 Y38.970621 Z-1.000000 I-18.309547 J-0.000196
G03 X62.854764 Y41.691880 Z-1.000000 I-11.997269 J-2.322672
G03 X61.342590 Y44.069497 Z-1.000000 I-9.133933 J-4.139538
G03 X59.342418 Y45.799537 Z-1.000000 I-6.713607 J-5.740618
G03 X56.920322 Y46.876556 Z-1.000000 I-4.914208 J-7.789485
G03 X54.153277 Y47.258053 Z-1.000000 I-2.767196 J-9.845204
G03 X50.357384 Y46.528447 Z-1.000000 I0.000106 J-10.239730
G03 X47.118668 Y44.450162 Z-1.000000 I3.762305 J-9.425708
G03 X45.117552 Y41.237089 Z-1.000000 I5.225954 J-5.484435
G03 X44.171873 Y35.073989 Z-1.000000 I19.609802 J-6.163073
G01 X44.171873 Y35.073989 Z-1.000000
G00 Z5.000000

G00 Z5.000000
G00 X40.203123 Y35.133521

G01 Z-1.000000 F1.0
G02 X41.335298 Y41.924702 Z-1.000000 I20.933959 J0.000012 F400.000000
G02 X44.092498 Y46.474224 Z-1.000000 I11.822248 J-4.054527
G02 X48.460014 Y49.458830 Z-1.000000 I9.117088 J-8.653566
G02 X54.133434 Y50.571958 Z-1.000000 I5.673523 J-13.902189
G02 X58.022362 Y50.065345 Z-1.000000 I-0.000160 J-15.180892
G02 X61.396248 Y48.647115 Z-1.000000 I-3.386940 J-12.779580
G02 X64.225899 Y46.348149 Z-1.000000 I-6.431091 J-10.806525
G02 X66.327418 Y43.279380 Z-1.000000 I-9.638016 J-8.854150
G02 X67.566671 Y39.729893 Z-1.000000 I-13.861294 J-6.830551
G02 X68.024059 Y35.470864 Z-1.000000 I-19.602365 J-4.259224
G02 X67.544026 Y31.161298 Z-1.000000 I-19.586584 J0.000187
G02 X66.238123 Y27.553207 Z-1.000000 I-14.961676 J3.374819
G02 X64.039891 Y24.461183 Z-1.000000 I-11.662671 J5.964000
G02 X61.177966 Y22.264848 Z-1.000000 I-8.558025 J8.188725
G02 X57.785983 Y20.928468 Z-1.000000 I-6.955488 J12.681393
G02 X54.113591 Y20.468989 Z-1.000000 I-3.672392 J14.446101
G02 X50.154299 Y20.994600 Z-1.000000 I-0.000000 J15.174989
G02 X46.771402 Y22.453364 Z-1.000000 I3.368521 J12.463525
G02 X43.940343 Y24.803392 Z-1.000000 I6.772147 J11.038644
G02 X41.869998 Y27.870707 Z-1.000000 I9.714705 J8.789497
G02 X40.625959 Y31.400890 Z-1.000000 I14.902545 J7.235958
G02 X40.203123 Y35.133521 Z-1.000000 I16.263517 J3.732613
G01 X40.203123 Y35.133521 Z-1.000000
G00 Z5.000000

G00 Z5.000000
G00 X12.124216 Y20.965082

G01 Z-1.000000 F1.0
G01 X12.124216 Y50.056022 Z-1.000000 F400.000000
G01 X15.973903 Y50.056022 Z-1.000000
G01 X15.973903 Y38.110083 Z-1.000000
G01 X31.094841 Y38.110083 Z-1.000000
G01 X31.094841 Y50.056022 Z-1.000000
G01 X34.944527 Y50.056022 Z-1.000000
G01 X34.944527 Y20.965082 Z-1.000000
G01 X31.094841 Y20.965082 Z-1.000000
G01 X31.094841 Y34.677114 Z-1.000000
G01 X15.973903 Y34.677114 Z-1.000000
G01 X15.973903 Y20.965082 Z-1.000000
G01 X12.124216 Y20.965082 Z-1.000000
G00 Z5.000000


(Pie de pagina)
M5
G00 X0.0000 Y0.0000
M2
(Usando pie por defecto. Para añadir tu propio pie crea un archivo "footer" en el directorio de salida.)
(end)
%