%
(Encabezamiento)
(Generado por gcodetools desde Inkscape.)
(Usando encabezamiento por defecto. Para generar tu propio encabezamiento crea un archivo "header" en el directorio de salida.)
M3
(Fin Encabezamiento.)
G21 (Todas las unidades en mm)
 
G00 Z5.000000
G00 X125.477073 Y37.092076

G01 Z-1.000000 F1.0
G01 X119.087384 Y37.092076 Z-1.000000 F400.000000
G01 X116.547384 Y43.700044 Z-1.000000
G01 X104.918948 Y43.700044 Z-1.000000
G01 X102.517855 Y37.092076 Z-1.000000
G01 X96.286916 Y37.092076 Z-1.000000
G01 X107.617698 Y66.183012 Z-1.000000
G01 X113.828791 Y66.183012 Z-1.000000
G01 X125.477073 Y37.092076 Z-1.000000
G00 Z5.000000

G00 Z5.000000
G00 X114.662230 Y48.601451

G01 Z-1.000000 F1.0
G01 X110.653791 Y59.396451 Z-1.000000 F400.000000
G01 X106.724730 Y48.601451 Z-1.000000
G01 X114.662230 Y48.601451 Z-1.000000
G00 Z5.000000

G00 Z5.000000
G00 X74.558009 Y37.092076

G01 Z-1.000000 F1.0
G01 X74.558009 Y65.944887 Z-1.000000 F400.000000
G01 X80.431759 Y65.944887 Z-1.000000
G01 X80.431759 Y41.993480 Z-1.000000
G01 X95.036759 Y41.993480 Z-1.000000
G01 X95.036759 Y37.092076 Z-1.000000
G01 X74.558009 Y37.092076 Z-1.000000
G00 Z5.000000

G00 Z5.000000
G00 X47.669730 Y51.657387

G01 Z-1.000000 F1.0
G03 X48.366017 Y46.982358 Z-1.000000 I16.042453 J-0.000041 F400.000000
G03 X49.951759 Y44.166371 Z-1.000000 I7.174392 J2.185575
G03 X52.535610 Y42.291629 Z-1.000000 I5.623638 J5.032785
G03 X55.746134 Y41.616451 Z-1.000000 I3.210504 J7.295461
G03 X58.956315 Y42.289913 Z-1.000000 I0.000019 J7.987596
G03 X61.510743 Y44.146528 Z-1.000000 I-2.975435 J6.779325
G03 X63.066568 Y46.941657 Z-1.000000 I-5.487852 J4.885215
G03 X63.763009 Y51.736762 Z-1.000000 I-16.160081 J4.795218
G03 X63.080804 Y56.477513 Z-1.000000 I-16.814018 J-0.000114
G03 X61.570275 Y59.198012 Z-1.000000 I-6.809092 J-2.001076
G03 X59.075185 Y60.984238 Z-1.000000 I-5.212109 J-4.644790
G03 X55.746134 Y61.658637 Z-1.000000 I-3.329141 J-7.879871
G03 X52.418545 Y60.980221 Z-1.000000 I0.000089 J-8.500453
G03 X49.892230 Y59.168246 Z-1.000000 I2.788811 J-6.555375
G03 X48.358861 Y56.415038 Z-1.000000 I5.376078 J-4.797747
G03 X47.669730 Y51.657387 Z-1.000000 I16.078166 J-4.757609
G01 X47.669730 Y51.657387 Z-1.000000
G00 Z5.000000

G00 Z5.000000
G00 X41.617384 Y51.458951

G01 Z-1.000000 F1.0
G02 X42.003135 Y55.822676 Z-1.000000 I24.874726 J-0.000000 F400.000000
G02 X42.946916 Y58.920201 Z-1.000000 I13.380065 J-2.384212
G02 X44.117542 Y61.021754 Z-1.000000 I12.449128 J-5.557718
G02 X45.655589 Y62.908794 Z-1.000000 I11.550383 J-7.843906
G02 X47.505088 Y64.479382 Z-1.000000 I9.113489 J-8.857634
G02 X49.415980 Y65.528169 Z-1.000000 I5.862417 J-8.416116
G02 X52.198971 Y66.361668 Z-1.000000 I5.183173 J-12.243377
G02 X55.686605 Y66.679105 Z-1.000000 I3.487864 J-19.002879
G02 X61.643656 Y65.564837 Z-1.000000 I-0.000109 J-16.481380
G02 X65.975589 Y62.690512 Z-1.000000 I-4.383738 J-11.308307
G02 X68.711419 Y58.247205 Z-1.000000 I-8.706199 J-8.424480
G02 X69.835198 Y51.597855 Z-1.000000 I-19.110845 J-6.649482
G02 X68.722001 Y45.002019 Z-1.000000 I-20.097968 J0.000133
G02 X66.005355 Y40.574653 Z-1.000000 I-11.448221 J3.977510
G02 X61.702088 Y37.708740 Z-1.000000 I-8.653609 J8.329984
G02 X55.765980 Y36.595980 Z-1.000000 I-5.936119 J15.277000
G02 X49.749552 Y37.710491 Z-1.000000 I0.000011 J16.796464
G02 X45.447230 Y40.554810 Z-1.000000 I4.274560 J11.141715
G02 X42.725205 Y44.961793 Z-1.000000 I8.703484 J8.419946
G02 X41.617384 Y51.458951 Z-1.000000 I18.498384 J6.497158
G01 X41.617384 Y51.458951 Z-1.000000
G00 Z5.000000

G00 Z5.000000
G00 X13.459103 Y37.092076

G01 Z-1.000000 F1.0
G01 X13.459103 Y66.183012 Z-1.000000 F400.000000
G01 X19.332853 Y66.183012 Z-1.000000
G01 X19.332853 Y54.733169 Z-1.000000
G01 X30.842230 Y54.733169 Z-1.000000
G01 X30.842230 Y66.183012 Z-1.000000
G01 X36.715980 Y66.183012 Z-1.000000
G01 X36.715980 Y37.092076 Z-1.000000
G01 X30.842230 Y37.092076 Z-1.000000
G01 X30.842230 Y49.811919 Z-1.000000
G01 X19.332853 Y49.811919 Z-1.000000
G01 X19.332853 Y37.092076 Z-1.000000
G01 X13.459103 Y37.092076 Z-1.000000
G00 Z5.000000


(Pie de pagina)
M5
G00 X0.0000 Y0.0000
M2
(Usando pie por defecto. Para añadir tu propio pie crea un archivo "footer" en el directorio de salida.)
(end)
%