%
(Encabezamiento)
(Generado por gcodetools desde Inkscape.)
(Usando encabezamiento por defecto. Para generar tu propio encabezamiento crea un archivo "header" en el directorio de salida.)
M3
(Fin Encabezamiento.)
G21 (Todas las unidades en mm)
 
G00 Z5.000000
G00 X61.840053 Y144.336511

G01 Z-1.000000 F1.0
G01 X61.840053 Y187.135385 Z-1.000000 F400.000000
G01 X77.561617 Y187.135385 Z-1.000000
G02 X82.279411 Y186.740332 Z-1.000000 I-0.000379 J-28.372444
G02 X85.265185 Y185.836238 Z-1.000000 I-2.048682 J-12.148083
G02 X87.848045 Y184.175805 Z-1.000000 I-4.189941 J-9.356680
G02 X89.810145 Y181.836614 Z-1.000000 I-6.696285 J-7.609299
G02 X91.049651 Y179.022793 Z-1.000000 I-9.993317 J-6.082035
G02 X91.453763 Y176.187515 Z-1.000000 I-9.745421 J-2.835451
G02 X91.088084 Y173.544715 Z-1.000000 I-9.734023 J0.000178
G02 X89.995945 Y171.020120 Z-1.000000 I-9.958208 J2.809389
G02 X88.245476 Y168.911875 Z-1.000000 I-7.788053 J4.685569
G02 X85.593907 Y167.108081 Z-1.000000 I-8.269384 J9.305156
G02 X89.055720 Y165.483997 Z-1.000000 I-3.728431 J-12.448880
G02 X91.439470 Y163.225236 Z-1.000000 I-5.303157 J-7.983818
G02 X92.935934 Y160.299543 Z-1.000000 I-7.912768 J-5.892865
G02 X93.483276 Y156.744096 Z-1.000000 I-11.275264 J-3.555619
G02 X93.160964 Y153.810578 Z-1.000000 I-13.513071 J0.000245
G02 X92.239843 Y151.153384 Z-1.000000 I-11.978732 J2.664195
G02 X90.763119 Y148.759393 Z-1.000000 I-12.189362 J5.866511
G02 X89.166990 Y147.168360 Z-1.000000 I-6.876809 J5.302698
G02 X87.225503 Y145.996777 Z-1.000000 I-6.240866 J8.147579
G02 X84.579152 Y145.051773 Z-1.000000 I-6.602208 J14.310684
G02 X81.793951 Y144.546214 Z-1.000000 I-4.795405 J18.493813
G02 X77.818879 Y144.336511 Z-1.000000 I-3.975072 J37.570250
G01 X61.840053 Y144.336511 Z-1.000000
G00 Z5.000000

G00 Z5.000000
G00 X67.385478 Y149.387130

G01 Z-1.000000 F1.0
G01 X77.818879 Y149.387130 Z-1.000000 F400.000000
G03 X80.499040 Y149.459653 Z-1.000000 I0.000158 J49.553994
G03 X81.592055 Y149.591490 Z-1.000000 I-0.451888 J8.343302
G03 X83.446937 Y150.095556 Z-1.000000 I-2.050944 J11.212015
G03 X84.793537 Y150.759261 Z-1.000000 I-2.382648 J6.532108
G03 X85.923680 Y151.721065 Z-1.000000 I-2.872769 J4.520447
G03 X86.908803 Y153.138598 Z-1.000000 I-5.416279 J4.815147
G03 X87.512203 Y154.756616 Z-1.000000 I-5.840257 J3.099501
G03 X87.737758 Y156.744096 Z-1.000000 I-8.645339 J1.987680
G03 X87.413335 Y159.038205 Z-1.000000 I-8.274568 J-0.000159
G03 X86.537203 Y160.904288 Z-1.000000 I-6.293972 J-1.816326
G03 X85.119754 Y162.384625 Z-1.000000 I-5.107889 J-3.472109
G03 X83.207090 Y163.385804 Z-1.000000 I-4.094633 J-5.494858
G03 X81.039835 Y163.870612 Z-1.000000 I-3.407303 J-10.145203
G03 X77.075679 Y164.101066 Z-1.000000 I-3.964412 J-33.983962
G01 X67.385478 Y164.101066 Z-1.000000
G01 X67.385478 Y149.387130 Z-1.000000
G00 Z5.000000

G00 Z5.000000
G00 X67.385478 Y169.151685

G01 Z-1.000000 F1.0
G01 X76.446817 Y169.151685 Z-1.000000 F400.000000
G03 X80.108231 Y169.323103 Z-1.000000 I0.000409 J39.179932
G03 X81.734980 Y169.647986 Z-1.000000 I-0.749857 J7.989833
G03 X83.658422 Y170.558410 Z-1.000000 I-2.106150 J6.936670
G03 X84.922167 Y171.779171 Z-1.000000 I-2.747201 J4.108433
G03 X85.691733 Y173.365548 Z-1.000000 I-4.172723 J3.004075
G03 X85.994092 Y175.516045 Z-1.000000 I-7.497433 J2.150642
G03 X85.724797 Y177.570754 Z-1.000000 I-7.974507 J-0.000157
G03 X84.993630 Y179.267514 Z-1.000000 I-6.124878 J-1.633414
G03 X83.781075 Y180.617113 Z-1.000000 I-4.340660 J-2.680378
G03 X82.135165 Y181.486283 Z-1.000000 I-3.292305 J-4.241516
G03 X80.244144 Y181.874731 Z-1.000000 I-2.720574 J-8.447034
G03 X75.760784 Y182.084766 Z-1.000000 I-4.483951 J-47.758069
G01 X67.385478 Y182.084766 Z-1.000000
G01 X67.385478 Y169.151685 Z-1.000000
G00 Z5.000000


(Pie de pagina)
M5
G00 X0.0000 Y0.0000
M2
(Usando pie por defecto. Para añadir tu propio pie crea un archivo "footer" en el directorio de salida.)
(end)
%